!!!COM: Haydn, Franz Joseph 
!!!OPR: String Quartet in G Major 
!!!ONM: Opus 64, No. 4 
!!!OTL: Adagio cantabile sostenuto 
!!!OMV: 3 
!!!SCT: H III:66 
!!!SCA: Thematisch-bibliographisches Werkevererzeichnis (A. van Hoboken) 
!!!YOR: Trautwein Edition 
!!!EED: Frances Bennion 
!!!ENC: Frances Bennion 
!!!CDT: 1732/3/31/-1809/5/31/
!!!OCY: Österreich 
!!!YEC: Copyright (c) 1994, 2000 Center for Computer Assisted Research in the Humanities 
!!!YEM: Rights to all derivative editions reserved. 
!!!YEM: Refer to licensing agreement for further details. 
!!!YEN: United States of America 
**kern	**kern	**kern	**kern
*k[]	*k[]	*k[b-e-a-]	*k[b-e-a-]
*C:	*C:	*C:	*C:
*clefF	*clefF	*clefC3	*clefF4
*M2/4	*M2/4	*M2/4	*M2/4
*tb96	*tb96	*tb96	*tb96
=0-	=0-	=0-	=0-
4.r	4.r	4.r	4.r
8g	8r	8r	8r
=1	=1	=1	=1
8.cc	16e	16c	4C
.	16G	16G	.
.	16g	16e	.
32dd	16G	16G	.
32cc	.	.	.
8b	16f	16d	4r
.	16G	16G	.
8cc	16e	16c	.
.	16G	16G	.
=2	=2	=2	=2
8dd	16d	16B	8GG
.	16G	16G	.
8gg	16f	16d	8r
.	16G	16G	.
8ee	16e	16c	8C
.	16G	16G	.
8cc	16g	16e	8r
.	16G	16G	.
=3	=3	=3	=3
8dd	16d	16B	8F
.	16G	16G	.
8ee	16e	16c	8E
.	16G	16G	.
8ff	16f	16d	8BB
.	16G	16G	.
8ee	16e	16c	8C
.	16G	16G	.
=4	=4	=4	=4
8dd	16d	16B	4GG
.	16B	16G	.
16.ee	16G	16c	.
.	16c	16F#	.
32dd	.	.	.
8dd	16B	16G	4r
.	16c	16A	.
8g	16d	16B	.
.	16f	16d	.
=5	=5	=5	=5
8.cc	16e	16c	8CC
.	16G	16G	.
.	16g	16e	8C
32dd	16G	16G	.
32cc	.	.	.
8b	16f	16d	4r
.	16G	16G	.
8cc	16e	16c	.
.	16G	16G	.
=6	=6	=6	=6
8dd	16d	16B	8GG
.	16G	16G	.
8gg	16f	16d	8r
.	16G	16G	.
8ee	16e	16c	8C
.	16G	16G	.
8cc	16g	16e	8r
.	16G	16G	.
=7	=7	=7	=7
8dd	16f	16d	4BB
.	16G	16G	.
8gg	16d	16f	.
.	16G	16G	.
8ee	16e	16c	8C
.	16G	16G	.
8aa	16a	16c	8AA
.	16e	16e	.
=8	=8	=8	=8
4gg	16g	16B	8D
.	16d	16B	.
.	16g	16B	8r
.	16d	16B	.
16ff#	16f#	16c	8D
16gg	16c	16A	.
16aa	16f#	16c	8r
16bb	16c	16F#	.
=9	=9	=9	=9
8gg	8B	4G	16r
.	.	.	16G
4r	8.r	.	16D
.	.	.	16BB
.	.	16r	8GG
.	16f	16d	.
8g	16e	16c	8r
.	16d	16B	.
=10	=10	=10	=10
8.cc	16e	16c	4C
.	16G	16G	.
.	16g	16e	.
32dd	16G	16G	.
32cc	.	.	.
8b	16f	16d	4r
.	16G	16G	.
8cc	16e	16c	.
.	16G	16G	.
=11	=11	=11	=11
32dd	16d	16B	8GG
32cc	.	.	.
32b	16G	16G	.
32cc	.	.	.
32dd	16f	16d	8r
32ee	.	.	.
32ff	16G	16G	.
32gg	.	.	.
8ee	16e	16c	8C
.	16G	16G	.
16dd	16g	16e	8r
16cc	16G	16G	.
=12	=12	=12	=12
16dd	16d	16B	8F
16dd	16G	16G	.
16ee	16e	16c	8E
16ee	16G	16G	.
16gg	16f	16d	8BB
16ff#	16G	16G	.
16ff	16e	16c	8C
16ee	16G	16G	.
=13	=13	=13	=13
8dd	16d	16B	4GG
.	16B	16G	.
16.ee	16G	16c	.
.	16c	16F#	.
32dd	.	.	.
8dd	16B	16G	4r
.	16c	16A	.
8g	16d	16B	.
.	16f	16d	.
=14	=14	=14	=14
8.cc	16e	16c	8CC
.	16G	16G	.
.	16g	16e	8C
32dd	16G	16G	.
32cc	.	.	.
16.b	16f	16d	4r
.	16G	16G	.
32cc	.	.	.
16.cc	16e	16c	.
.	16G	16G	.
64b	.	.	.
64cc	.	.	.
=15	=15	=15	=15
32dd	16d	16B	8GG
32cc	.	.	.
32b	16G	16G	.
32cc	.	.	.
32dd	16f	16d	8r
32ee	.	.	.
32ff	16G	16G	.
32gg	.	.	.
8ee	16e	16c	8C
.	16G	16G	.
16dd	16g	16e	8r
16cc	16G	16G	.
=16	=16	=16	=16
16dd	16f	16d	4BB
16gg	16G	16G	.
16gg	16d	16f	.
16gg	16G	16G	.
16ee	16e	16e	8C
16aa	16A	16c	.
16aa	16a	16c	8AA
16aa	16c	16e	.
=17	=17	=17	=17
32gg	16g	16B	8D
32ff#	.	.	.
32aa	16B	16g	.
32gg	.	.	.
32bb	16g	16B	8r
32aa	.	.	.
32ccc	16B	16g	.
32bb	.	.	.
16ddd	16f#	16A	8D
16ccc	16A	16f#	.
16bb	16f#	16A	8r
16aa	16A	16f#	.
=18	=18	=18	=18
8gg	8B	8g	16GG
.	.	.	16G
4r	4r	4r	16D
.	.	.	16BB
.	.	.	8GG
8gg	8e	8B-	8GG
=19	=19	=19	=19
8.ff	16d	16A	8AA
.	16A	16d	.
.	16f	16d	8A
32gg	16A	16A	.
32ff	.	.	.
8ee	16e	16c#	8r
.	16A	16A	.
8aa	16e	16c#	8GG
.	16A	16e	.
=20	=20	=20	=20
8.aa	16f	16d	8FF
.	16A	16A	.
.	16f	16d	8F
16ff	16A	16A	.
8dd	16a	16f	8r
.	16A	16A	.
8ee	16g	16e	8C#
.	16A	16A	.
=21	=21	=21	=21
8ff	16f	16d	8D
.	16A	16A	.
8gg	16f	16d	8BB
.	16G	16G	.
8ee	16e	16c	8C
.	16G	16G	.
8ff	16f	16d	8FF
.	16A	16d	.
=22	=22	=22	=22
4ee	16e	16c	8GG
.	16G	16G	.
.	16e	16c	8G
.	16G	16G	.
8dd	16d	16B	8GG
.	16G	16G	.
8g	16f	16d	8r
.	16G	16G	.
=23	=23	=23	=23
8.cc	16e	16c	8CC
.	16G	16G	.
.	16g	16e	8C
32dd	16G	16G	.
32cc	.	.	.
8b	16f	16d	4r
.	16G	16G	.
8cc	16e	16c	.
.	16G	16G	.
=24	=24	=24	=24
8dd	16d	16B	8GG
.	16G	16G	.
8gg	16f	16d	8r
.	16G	16G	.
8ee	16e	16c	8C
.	16G	16G	.
8cc	16g	16e	8EE
.	16G	16G	.
=25	=25	=25	=25
8cc	16g	16e	2FF
.	16A	16A	.
8cc#	16g	16e	.
.	16A	16A	.
8..dd	16f	16d	.
.	16A	16A	.
.	16f	16d	.
.	16A	16A	.
32aa	.	.	.
=26	=26	=26	=26
8aa	16f	16d	[2GG
.	16G	16B	.
16.b	16f	16d	.
.	16G	16B	.
32gg	.	.	.
8gg	16e	16c	.
.	16G	16e	.
16.ee	16e	16c	.
.	16G	16e	.
32gg	.	.	.
=27	=27	=27	=27
8g	16d	16c	4.GG]
.	16G	16G	.
32a	16d	16c	.
32g	.	.	.
32b	16G	16G	.
32a	.	.	.
32cc	16d	16B	.
32b	.	.	.
32dd	16G	16G	.
32cc	.	.	.
32ee	16d	16B	8GG
32dd	.	.	.
32ff	16G	16G	.
32b	.	.	.
=28	=28	=28	=28
4dd	4B	4F	8CC
.	.	.	8C
8cc	8c	8E	8C
8gg	8e	8B-	8GG
=29	=29	=29	=29
8.ff	16d	16A	8AA
.	16A	16d	.
.	16f	16d	8A
32gg	16A	16A	.
32ff	.	.	.
8ee	16e	16c#	8r
.	16A	16A	.
32a	16e	16c#	8GG
32cc#	.	.	.
32ee	16A	16e	.
32aa	.	.	.
=30	=30	=30	=30
[8aa	16f	16d	8FF
.	16A	16A	.
32aa]	16f	16d	8F
32ff	.	.	.
32gg	16g	16e	.
32ee	.	.	.
8dd	16a	16f	8r
.	16A	16A	.
16ee	16g	16e	8C#
32dd	16A	16A	.
32ee	.	.	.
=31	=31	=31	=31
16ff	16f	16d	8D
16ff	16A	16A	.
16gg	16f	16d	8BB
16gg	16G	16G	.
16ee	16e	16c	8C
16ee	16G	16G	.
16ff	16f	16d	8FF
32ee	16A	16d	.
32ff	.	.	.
=32	=32	=32	=32
[8ee	16e	16c	8GG
.	16G	16G	.
32ee]	16e	16c	8G
32ff	.	.	.
32ff#	16G	16G	.
32gg	.	.	.
8dd	16d	16B	8GG
.	16G	16G	.
8g	16f	16d	8r
.	16G	16G	.
=33	=33	=33	=33
8.cc	16e	16c	8CC
.	16G	16G	.
.	16g	16e	8C
32dd	16G	16G	.
32cc	.	.	.
16.b	16f	16d	4r
.	16G	16G	.
32cc	.	.	.
16.cc	16e	16c	.
.	16G	16G	.
64b	.	.	.
64cc	.	.	.
=34	=34	=34	=34
32dd	16d	16B	8GG
32cc	.	.	.
32b	16G	16G	.
32cc	.	.	.
32dd	16f	16d	8r
32ee	.	.	.
32ff	16G	16G	.
32gg	.	.	.
8ee	16e	16c	8C
.	16G	16G	.
16dd	16g	16e	8EE
16cc	16G	16G	.
=35	=35	=35	=35
8cc	16g	16e	2FF
.	16A	16A	.
8cc#	16g	16e	.
.	16A	16A	.
32ee	16f	16d	.
32dd	.	.	.
32ff	16A	16A	.
32ee	.	.	.
32gg	16f	16d	.
32ff	.	.	.
32aa	16A	16A	.
32gg	.	.	.
=36	=36	=36	=36
16aa	16f	16d	[2GG
32gg	16G	16B	.
32ff	.	.	.
32ee	16f	16d	.
32dd	.	.	.
32cc	16G	16B	.
32b	.	.	.
16gg	16e	16c	.
32ff	16G	16e	.
32ee	.	.	.
32dd	16e	16c	.
32cc	.	.	.
32ee	16G	16e	.
32cc	.	.	.
=37	=37	=37	=37
16g	16d	16c	4.GG]
32a-	16G	16G	.
32a	.	.	.
32b-	16d	16c	.
32b	.	.	.
32cc	16G	16G	.
32cc#	.	.	.
16dd	16d	16B	.
16ee	16G	16G	.
16ff	16d	16B	8GG
16b	16G	16F	.
=38	=38	=38	=38
4dd	4B	4F	8CC
.	.	.	8C
8cc	8c	8E	8CC
8g	8r	8r	8r
=39	=39	=39	=39
8.cc	16e-	16c	2r
.	16g	16g	.
.	16e-	16e-	.
32dd	16g	16g	.
32cc	.	.	.
8b	16f	16d	.
.	16g	16g	.
8cc	16e-	16c	.
.	16g	16g	.
=40	=40	=40	=40
8dd	16d	16B	2r
.	16g	16g	.
8gg	16B	16G	.
.	16g	16g	.
8ee-	16c	16c	.
.	16g	16g	.
8cc	16e-	16e-	.
.	16g	16g	.
=41	=41	=41	=41
8b	4g	16f	2r
.	.	16g	.
8cc	.	16e-	.
.	.	16g	.
8ff	8dd	16B	.
.	.	16g	.
8ee-	8cc	16c	.
.	.	16g	.
=42	=42	=42	=42
8dd	4b	16G	2r
.	.	16g	.
8gg	.	16G	.
.	.	16g	.
8ff#	8cc	16A	.
.	.	16g	.
8ff	[8dd	16B	.
.	.	16g	.
=43	=43	=43	=43
4ee-	8dd]	16c	2r
.	.	16g	.
.	4cc	16a-	.
.	.	16f#	.
8dd	.	16g	.
.	.	16c	.
8dd-	[8b-	16g	.
.	.	16e	.
=44	=44	=44	=44
4cc	8b-]	16f	2r
.	.	16c	.
.	4a-	16f	.
.	.	16d	.
8.b-	.	16e-	.
.	.	16B-	.
.	8g	16e-	.
16ee-	.	16c	.
=45	=45	=45	=45
[4ee-	16f	16A-	2r
.	16g-	16A	.
.	16g	16B-	.
.	16a-	16c-	.
16ee-]	8g	8B-	.
16b-	.	.	.
16a-	16f	8B-	.
16f	16d	.	.
=46	=46	=46	=46
16e-	8e-	2G	[2E-
16g	.	.	.
16b-	4B-	.	.
16dd	.	.	.
16ee-	.	.	.
16bb-	.	.	.
16gg	8B-	.	.
16ee-	.	.	.
=47	=47	=47	=47
16ee-	2c-	2A-	2E-_
16f	.	.	.
16ee-	.	.	.
16f	.	.	.
16dd	.	.	.
16f	.	.	.
16ff	.	.	.
16d	.	.	.
=48	=48	=48	=48
16e-	2B-	2G	2E-_
16g	.	.	.
16b-	.	.	.
16dd	.	.	.
16ee-	.	.	.
16bb-	.	.	.
16gg	.	.	.
16ee-	.	.	.
=49	=49	=49	=49
16ee-	2c-	2A-	2E-_
16f	.	.	.
16ee-	.	.	.
16f	.	.	.
16dd	.	.	.
16f	.	.	.
16ff	.	.	.
16d	.	.	.
=50	=50	=50	=50
16e-	16B-	4G	4E-]
16g	16e-	.	.
16b-	16g	.	.
16ee-	16b-	.	.
16gg	16ee-	8r	4r
16bb-	16gg	.	.
16aa-	16ff	8e-	.
16gg	16ee-	.	.
=51	=51	=51	=51
16ff	16dd	8b-	2r
16aa-	16ff	.	.
16gg	16ee-	8b	.
16ff	16dd	.	.
4ee-	8dd	16cc	.
.	.	16b-	.
.	[8cc	16a-	.
.	.	16g	.
=52	=52	=52	=52
4dd-	8cc]	16f	2r
.	.	16a-	.
.	4b-	16g	.
.	.	16e-	.
4cc	.	16a-	.
.	.	16g	.
.	[8a-	16f	.
.	.	16e-	.
=53	=53	=53	=53
4b-	8a-]	16d-	2r
.	.	16f	.
.	4g	16e-	.
.	.	16B-	.
4a-	.	16c	.
.	.	16e-	.
.	[8f	16d-	.
.	.	16c	.
=54	=54	=54	=54
4.g	8f]	16B-	8r
.	.	16d-	.
.	8e	16c	8C
.	.	16B-	.
.	8c	4A-	16F
.	.	.	16E-
8f	8d	.	16D
.	.	.	16C
=55	=55	=55	=55
8f	8d	4G	16BB
.	.	.	16GG
8e-	4c	.	16C
.	.	.	16EE-
8d	.	16A-	16FF
.	.	16G	16EE
8e-	8c	16F	16FF
.	.	16F#	16FF#
=56	=56	=56	=56
4.d	4c	8G	16GG
.	.	.	16FF#
.	.	4.r	16GG
.	.	.	16AA-
.	8B	.	16GG
.	.	.	16FF
8g	8r	.	16EE-
.	.	.	16DD
=57	=57	=57	=57
8.cc	16e-	16c	8CC
.	16g	16g	.
.	16e-	16e-	4.r
32dd	16g	16g	.
32cc	.	.	.
8b	16f	16d	.
.	16g	16g	.
8cc	16e-	16c	.
.	16g	16g	.
=58	=58	=58	=58
8dd	16d	16B	2r
.	16g	16g	.
8gg	16B	16G	.
.	16g	16g	.
8ee-	16c	16c	.
.	16g	16g	.
8cc	16e-	16e-	.
.	16g	16g	.
=59	=59	=59	=59
8b	4g	16f	2r
.	.	16g	.
8cc	.	16e-	.
.	.	16g	.
8ff	8dd	16B	.
.	.	16g	.
8ee-	8cc	16c	.
.	.	16g	.
=60	=60	=60	=60
4dd	4b	4G	16G
.	.	.	16d
.	.	.	16G
.	.	.	16F
16dd-	16b-	4r	16E
16b-	16g	.	16d-
16dd-	16b-	.	16E
16b-	16g	.	16d-
=61	=61	=61	=61
16b-	16g	2r	4F
16a-	16f	.	.
16g	16e	.	.
16a-	16f	.	.
16ee-	16cc	.	16F#
16cc	16a	.	16e-
16ee-	16cc	.	16F#
16cc	16a	.	16e-
=62	=62	=62	=62
16b	8g	2B	[2G
16g	.	.	.
16b	4d	.	.
16dd	.	.	.
16gg	.	.	.
16g	.	.	.
16gg	8d	.	.
16g	.	.	.
=63	=63	=63	=63
16gg	2e-	2c	2G_
16a	.	.	.
16gg	.	.	.
16a	.	.	.
16ff#	.	.	.
16a	.	.	.
16aa	.	.	.
16f#	.	.	.
=64	=64	=64	=64
16g	2d	2B	2G_
16b	.	.	.
16dd	.	.	.
16ff#	.	.	.
16gg	.	.	.
16ddd	.	.	.
16bb	.	.	.
16gg	.	.	.
=65	=65	=65	=65
16gg	2e-	2c	2G_
16a	.	.	.
16gg	.	.	.
16a	.	.	.
16ff#	.	.	.
16a	.	.	.
16aa	.	.	.
16f#	.	.	.
=66	=66	=66	=66
16g	8d	4B	4G]
16b	.	.	.
16dd	4g	.	.
16ff#	.	.	.
16gg	.	8B	8G
16g	.	.	.
16gg	8g	8c	8A
16g	.	.	.
=67	=67	=67	=67
16gg	2g	4d	4B
16g	.	.	.
16ff#	.	.	.
16g	.	.	.
16ff	.	8d	8B
16g	.	.	.
16ee	.	8e	8c
16g	.	.	.
=68	=68	=68	=68
16dd	8b	4.f	4.d
16g	.	.	.
16cc	8cc	.	.
16g	.	.	.
16b	8dd	.	.
16g	.	.	.
16a	8r	8r	8r
16b	.	.	.
=69	=69	=69	=69
8.cc	16e	16c	4C
.	16G	16G	.
.	16g	16e	.
32dd	16G	16G	.
32cc	.	.	.
8b	16f	16d	4r
.	16G	16G	.
8cc	16e	16c	.
.	16G	16G	.
=70	=70	=70	=70
8dd	16d	16B	8GG
.	16G	16G	.
8gg	16f	16d	8r
.	16G	16G	.
8ee	16e	16c	8C
.	16G	16G	.
8cc	16g	16e	8r
.	16G	16G	.
=71	=71	=71	=71
8dd	16d	16B	8F
.	16G	16G	.
8ee	16e	16c	8E
.	16G	16G	.
8ff	16f	16d	8BB
.	16G	16G	.
8ee	16e	16c	8C
.	16G	16G	.
=72	=72	=72	=72
8dd	16d	16B	4GG
.	16B	16G	.
16.ee	16G	16c	.
.	16c	16F#	.
32dd	.	.	.
8dd	16B	16G	4r
.	16c	16A	.
8g	16d	16B	.
.	16f	16d	.
=73	=73	=73	=73
8.cc	16e	16c	8CC
.	16G	16G	.
.	16g	16e	8C
32dd	16G	16G	.
32cc	.	.	.
16b	16f	16d	4r
16gg	16G	16G	.
16cc	16e	16c	.
16gg	16G	16G	.
=74	=74	=74	=74
16dd	16d	16B	8GG
16.gg	16G	16G	.
.	16f	16d	8r
32aa	.	.	.
32ff	16G	16G	.
32gg	.	.	.
16ee	16e	16c	8C
16gg	16G	16G	.
16ee	16g	16e	8r
16cc	16G	16G	.
=75	=75	=75	=75
16dd	16f	16d	4BB
32gg	16G	16G	.
64ff#	.	.	.
64gg	.	.	.
16bb	16d	16f	.
16gg	16G	16G	.
16ee	16e	16c	8C
32gg#	16G	16G	.
32aa	.	.	.
32bb	16a	16c	8AA
32aa	.	.	.
32ccc	16e	16e	.
32aa	.	.	.
=76	=76	=76	=76
8.gg	16g	16B	8D
.	16d	16B	.
.	16g	16B	8r
32aa	16d	16B	.
32gg	.	.	.
32ff#	16f#	16c	8D
32gg	.	.	.
32aa	16c	16A	.
32gg	.	.	.
32bb	16f#	16c	8r
32aa	.	.	.
32ccc	16c	16F#	.
32aa	.	.	.
=77	=77	=77	=77
8gg	8B	8G	16GG
.	.	.	16G
4r	4r	4r	16D
.	.	.	16BB
.	.	.	8GG
8gg	8e	8B-	8GG
=78	=78	=78	=78
8.ff	16d	16A	8AA
.	16A	16d	.
.	16f	16d	8A
32gg	16A	16A	.
32ff	.	.	.
8ee	16e	16c#	8r
.	16A	16A	.
32a	16e	16c#	8GG
32cc#	.	.	.
32ee	16A	16e	.
32aa	.	.	.
=79	=79	=79	=79
[8aa	16f	16d	8FF
.	16A	16A	.
32aa]	16f	16d	8F
32ff	.	.	.
32gg	16A	16A	.
32ee	.	.	.
16dd	16a	16f	8r
16dd	16A	16A	.
16r	16g	16e	8C#
32ff	16A	16A	.
32ee	.	.	.
=80	=80	=80	=80
16r	16f	16d	8D
32gg	16A	16A	.
32ff	.	.	.
16r	16f	16d	8BB
32aa	16G	16G	.
32gg	.	.	.
32ff	16e	16c	8C
32ee	.	.	.
32ddd	16G	16G	.
32ccc	.	.	.
32bb	16f	16d	8FF
32aa	.	.	.
32gg	16A	16d	.
32ff	.	.	.
=81	=81	=81	=81
8.ee	16e	16c	8GG
.	16G	16G	.
.	16e	16c	8G
16ee-	16G	16G	.
8dd	16d	16B	8GG
.	16G	16G	.
8g	16f	16d	8r
.	16G	16G	.
=82	=82	=82	=82
16G 16cc 16e	16e	16c	8CC
32ee	16G	16G	.
32gg	.	.	.
32ccc	16g	16e	8C
32gg	.	.	.
32ee	16G	16G	.
32cc	.	.	.
32b	16f	16d	4r
32gg	.	.	.
16gg	16G	16G	.
32cc	16e	16c	.
32gg	.	.	.
16gg	16G	16G	.
=83	=83	=83	=83
16dd	16d	16B	8GG
16.gg	16G	16G	.
.	16f	16d	8r
32aa	.	.	.
32ff	16G	16G	.
32gg	.	.	.
16ee	16e	16c	8C
16cc	16G	16G	.
16cc	16g	16e	8EE
16cc	16G	16G	.
=84	=84	=84	=84
8cc	16g	16e	2FF
.	16A	16A	.
8cc#	16g	16e	.
.	16A	16A	.
32dd	16f	16d	.
32ee-	.	.	.
32ee	16A	16A	.
32ff	.	.	.
32ff#	16f	16d	.
32gg	.	.	.
32gg#	16A	16A	.
32aa	.	.	.
=85	=85	=85	=85
8aa	16f	16d	[2GG
.	16G	16B	.
16.b	16f	16d	.
.	16G	16B	.
32gg	.	.	.
8gg	16e	16c	.
.	16G	16e	.
16.ee	16e	16c	.
.	16G	16e	.
32ggg	.	.	.
=86	=86	=86	=86
4ggg	16d	16c	4.GG]
.	16G	16G	.
.	16d	16c	.
.	16G	16G	.
32G	16d	16B	.
32B	.	.	.
32d	16G	16G	.
32f	.	.	.
48g	16d	16B	8GG
48b	.	.	.
48dd	.	.	.
32ff	16G	16G	.
32b	.	.	.
=87	=87	=87	=87
8cc	16e	16c	4C
.	16c	16G	.
4.r	16g	16e	.
.	16e	16c	.
.	16cc	16a	4r
.	16b	16g	.
.	16a	16f	.
.	16g	16e	.
=88	=88	=88	=88
2bb	2f	2d	32G
.	.	.	32B
.	.	.	32d
.	.	.	32B
.	.	.	16f
.	.	.	32d
.	.	.	32B
.	.	.	32G
.	.	.	32A
.	.	.	32F
.	.	.	32G
.	.	.	32E
.	.	.	32F
.	.	.	32D
.	.	.	32E
=89	=89	=89	=89
4ccc	16e	16e	4C
.	16c	16G	.
.	16g	16e	.
.	16e	16c	.
4r	16cc	16a	4r
.	16b	16g	.
.	16a	16f	.
.	16g	16e	.
=90	=90	=90	=90
2b	32f	32d	2GG
.	32g	32e	.
.	32e	32c	.
.	32f	32d	.
.	32d	32B	.
.	32f	32d	.
.	32e	32c	.
.	32g	32e	.
.	32f	32d	.
.	32e	32c#	.
.	32f	32d	.
.	32e	32c#	.
.	32f	32d	.
.	32a	32f	.
.	32g	32e	.
.	32f	32d	.
=91	=91	=91	=91
8cc	8e	8c	32C
.	.	.	32E
.	.	.	32G
.	.	.	32c
8r	8r	8r	32G
.	.	.	32E
.	.	.	32C
.	.	.	32E
8cc	8e	8E	32GG
.	.	.	32AA
.	.	.	32FF
.	.	.	32GG
8cc	8e	8G	32EE
.	.	.	32FF
.	.	.	32DD
.	.	.	32EE
=92	=92	=92	=92
8cc	8e	8G	8CC
8r	8r	8r	8r
8e	8c	8G	8CC
16.r	16.r	16.r	16.r
32e	32c	32G	32CC
=93	=93	=93	=93
8e	8c	8G	8CC
4.r	4.r	4.r	4.r
==	==	==	==
*-	*-	*-	*-
!!!RWG1: This file contains only pitch and duration data.
!!!RWG2: Transposing instruments are not transposed.
!!!RWG3: Spines may have incompatible meters.
!!!RWG4: Durations of rests and tied notes may be interpreted.
!!!RWG: Key is interpreted using the Humdrum key tool.
!!!GTL: 6 Quartetti ("Tost III") 
!!!AFT: stage1 
!!!END: 2000/12/07
!!format changes:
!!content changes:
!!public access: complete
!!!KEY: 612930629
!!!EMD: Converted from MuseData to Humdrum Dec 16, 2000, by Andreas Kornstaedt using muse2kern.
